dist/images/ico-photos.svg

<svg xmlns="http://www.w3.org/2000/svg" xmlns:xlink="http://www.w3.org/1999/xlink" preserveAspectRatio="none" width="85" height="100" viewBox="0 0 85 100"><defs><path fill="#fff" d="M25.1 53.85L67.3 65.1l12.85-48.15L37.95 5.7 25.1 53.85m4.65-10.4l9.5-35.55 38.7 10.35-9.5 35.55-38.7-10.35z" id="a"/><path fill="#fff" d="M1.9 51.65L26.85 94.8l37.8-21.85L39.7 29.8 1.9 51.65M22.75 84.2L4.35 52.3 39 32.25l18.4 31.9L22.75 84.2z" id="b"/></defs><use xlink:href="#a"/><use xlink:href="#b"/></svg>

<svg xmlns="http://www.w3.org/2000/svg" version="1.1" xmlns:xlink="http://www.w3.org/1999/xlink" preserveAspectRatio="none" x="0px" y="0px" width="85px" height="100px" viewBox="0 0 85 100">
<defs>
<g id="Layer1_0_FILL">
<path fill="#FFFFFF" stroke="none" d="
M 25.1 53.85
L 67.3 65.1 80.15 16.95 37.95 5.7 25.1 53.85
M 29.75 43.45
L 39.25 7.9 77.95 18.25 68.45 53.8 29.75 43.45 Z"/>
</g>

<g id="Layer0_0_FILL">
<path fill="#FFFFFF" stroke="none" d="
M 1.9 51.65
L 26.85 94.8 64.65 72.95 39.7 29.8 1.9 51.65
M 22.75 84.2
L 4.35 52.3 39 32.25 57.4 64.15 22.75 84.2 Z"/>
</g>
</defs>

<g transform="matrix( 1, 0, 0, 1, 0,0) ">
<use xlink:href="#Layer1_0_FILL"/>
</g>

<g transform="matrix( 1, 0, 0, 1, 0,0) ">
<use xlink:href="#Layer0_0_FILL"/>
</g>
</svg>
